X: 41369
T: Tusa Mo Thír
R: jig
M: 6/8
K: Dmajor
D|Fdc cBA|GAB ADE|FGB AGF|EFG FED|
Fdc cBA|GAB AdD|FGB AGF|EDC D2 A|
BBB Bcd|cAF AEF|GGG GAB|FGA EDE|
Fdc cBA|GAB AdD|FGB AGF|EDC D3||

